weblate/static/state/link.svg

<svg xmlns="http://www.w3.org/2000/svg" xmlns:svg="http://www.w3.org/2000/svg" id="svg10" width="14" height="14" version="1.1" viewBox="0 0 14 14"><metadata id="metadata16"/><title id="title2">96EDDF85-A11B-4DD5-A006-FE64E83A11B7</title><desc id="desc4">Created with sketchtool.</desc><g id="App-UI" fill="none" fill-rule="evenodd" stroke="none" stroke-width="1" transform="matrix(0.87023305,0,0,0.87023305,0.0381356,2.6488348)"><g id="Overview" fill="#2a3744" fill-rule="nonzero" transform="translate(-210,-331)"><g id="MiniLink" transform="translate(210,331)"><path id="Shape" d="M 5,1.9 H 7 V 0 H 5 C 2.2385763,0 0,2.2385763 0,5 0,7.7614237 2.2385763,10 5,10 H 7 V 8.1 H 5 C 3.29,8.1 1.9,6.71 1.9,5 1.9,3.29 3.29,1.9 5,1.9 Z M 11,6 V 4 H 5 V 6 Z M 11,0 H 9 v 1.9 h 2 c 1.71,0 3.1,1.39 3.1,3.1 0,1.71 -1.39,3.1 -3.1,3.1 H 9 V 10 h 2 c 2.761424,0 5,-2.2385763 5,-5 0,-2.7614237 -2.238576,-5 -5,-5 z"/></g></g></g></svg>

<svg width="14" height="14" version="1.1" viewBox="0 0 14 14" xmlns="http://www.w3.org/2000/svg"><g transform="matrix(.87023 0 0 .87023 .038136 2.6488)" fill="none" fill-rule="evenodd"><g transform="translate(-210,-331)" fill="#2a3744" fill-rule="nonzero"><g transform="translate(210,331)"><path d="m5 1.9h2v-1.9h-2c-2.7614 0-5 2.2386-5 5s2.2386 5 5 5h2v-1.9h-2c-1.71 0-3.1-1.39-3.1-3.1s1.39-3.1 3.1-3.1zm6 4.1v-2h-6v2zm0-6h-2v1.9h2c1.71 0 3.1 1.39 3.1 3.1s-1.39 3.1-3.1 3.1h-2v1.9h2c2.7614 0 5-2.2386 5-5s-2.2386-5-5-5z"/></g></g></g></svg>
